!!!COM: Mozart, Wolfgang Amadeus
!!!OTL: String Quartet No. 16 in E-flat Major
!!!OMD: Allegro non troppo
!!!OMV: 1
!!!SCT1: K<sup>1</sup> 428
!!!SCA: Chronologisch-thematisches Verzeichnis sämtlicher Tonwerke Wolfgang Amade Mozarts (L. von Köchel; 1862, 2/1905, 3/1937, 1947)
!!!SCT2: K<sup>6</sup> 421b
!!!YOR: Breitkopf & Härtel Edition
!!!ENC: Frances Bennion
!!!CDT: 1756/1/27/-1791/12/5/
!!!OCY: Österreich
!!!YEC: Copyright (c) 1994, 2000 Center for Computer Assisted Research in the Humanities
!!!YEM: Rights to all derivative editions reserved.
!!!YEM: Refer to licensing agreement for further details.
!!!YEN: United States of America
**kern	**kern	**kern	**kern
*k[b-e-a-]	*k[b-e-a-]	*k[b-e-a-]	*k[b-e-a-]
*E-:	*E-:	*E-:	*E-:
*clefC	*clefF	*clefG	*clefG
*M2/2	*M2/2	*M2/2	*M2/2
2E-	2E-	2e-	2e-
2e-	2e-	2ee-	2ee-
=2	=2	=2	=2
2.A	2.A	2.a	2.a
4B-	4B-	4b-	4b-
=3	=3	=3	=3
4B	4B	4b	4b
4c	4c	4cc	4cc
4E	4E	4e	4e
4F	4F	4f	4f
=4	=4	=4	=4
2A-	2A-	2a-	2a-
4G	4G	4g	4g
4r	4r	4r	4r
=5	=5	=5	=5
4r	4r	32c	2.f
.	.	32d	.
.	.	8.e-	.
4C	4A-	8e-	.
.	.	8e-	.
[2AA-	4c	2e-	.
.	4F	.	16b-
.	.	.	16a-
.	.	.	16g
.	.	.	16a-
=6	=6	=6	=6
4AA-]	4r	32c	2.f
.	.	32d	.
.	.	8.e-	.
4C	4A-	8e-	.
.	.	8e-	.
[2AA-	4c	[2e-	.
.	4F	.	16b-
.	.	.	16a-
.	.	.	16g
.	.	.	16a-
=7	=7	=7	=7
4AA-]	4r	2.e-]	4f
4A-	4f	.	4cc
4B-	4g	.	4b-
4BB-	4f	4d	4a-
=8	=8	=8	=8
4E-	4e-	8r	4g
.	.	8ee-	.
2.r	4g	8ee-	4b-
.	.	8ee-	.
.	2r	8.ee-	2r
.	.	32dd	.
.	.	32cc	.
.	.	8b-	.
.	.	8r	.
=9	=9	=9	=9
4r	4r	32c	2.f
.	.	32d	.
.	.	8.e-	.
4C	4A-	8e-	.
.	.	8e-	.
[2AA-	4c	2e-	.
.	4F	.	16b-
.	.	.	16a-
.	.	.	16g
.	.	.	16a-
=10	=10	=10	=10
4AA-]	4r	32c	2.f
.	.	32d	.
.	.	8.e-	.
4C	4A-	8e-	.
.	.	8e-	.
[2AA-	4c	[2e-	.
.	4F	.	16b-
.	.	.	16a-
.	.	.	16g
.	.	.	16a-
=11	=11	=11	=11
4AA-]	4r	4e-]	4f
4A-	2e-	4f	4cc
4B-	.	4g	4b-
4BB-	4B-	4f 4A-	4d 4A-
=12	=12	=12	=12
2E-	2B-	2e- 2G	2e- 2G
2C	2c	2e- 2G	2ee-
=13	=13	=13	=13
2.FF#	2.c	[1e-	2.a
[4GG	4B-	.	4b-
=14	=14	=14	=14
4GG]	4d-	2e-]	4b
4AA-	4c	.	4cc
4r	4r	4r	4e
4AA	4c	4f	4f
=15	=15	=15	=15
4BB-	2d	2f	2a-
4BB	.	.	.
8.C	4e-	4e-	4g
16D	.	.	.
8.E-	4r	4r	4r
16F	.	.	.
=16	=16	=16	=16
8G	[1g	8d 8B	4g
8G	.	4d 4B	.
8G	.	.	4.gg
8G	.	4d 4B	.
8G	.	.	.
8G	.	4d 4B	16aa-
.	.	.	16gg
8G	.	.	8aa-
8G	.	8d 8B	16gg
.	.	.	16ff
=17	=17	=17	=17
8C	4.g]	8d 8B	8ff
8C	.	8e- 8c	8ee-
8C	.	8e- 8c	4.ee-
8c	8e-	8a-	.
8c	8e-	8a-	.
8B-	8d-	8g	8ee-
8B-	8d-	8g	8ee-
8A-	8c	8a-	8ee-
=18	=18	=18	=18
8G	4B-	[1b-	8.ee-
8G	.	.	.
.	.	.	16ff
8G	2d-	.	2ff
8G	.	.	.
8G	.	.	.
8G	.	.	.
8G	4B-	.	4ee-
8G	.	.	.
=19	=19	=19	=19
8A-	[3..e-	4b-]	4dd-
8A-	.	.	.
8A-	.	8.a-	8.cc
8A-	.	.	.
.	.	16cc	16ee-
8A-	.	4.cc	4.ee-
.	24e-]	.	.
8A-	8e-	.	.
8A-	8e-	.	.
8A-	8e-	16b-	16dd
.	.	16a-	16cc
=20	=20	=20	=20
8E-	2e-	4a-	4cc
8E-	.	.	.
8E-	.	4g	8b-
8E-	.	.	8gg
8E-	2r	4r	8ff
8E-	.	.	8ee-
8E	.	[4g	8dd-
8E	.	.	8cc
=21	=21	=21	=21
8F	2c	8g]	4b-
8F	.	8e	.
8F	.	4f	8a-
8F	.	.	8ff
8F	4A-	4r	8ee-
8F	.	.	8dd
8D	4F	[4f	8cc
8D	.	.	8b-
=22	=22	=22	=22
8E-	2B-	8f]	4a-
8E-	.	8d	.
8E-	.	4e-	8g
8E-	.	.	8ee-
8E-	4g	2r	8dd
8E-	.	.	8cc
8C	4e-	.	8b-
8C	.	.	8a-
=23	=23	=23	=23
1AA-	2.c	2.e-	16g
.	.	.	16f
.	.	.	16a-
.	.	.	16g
.	.	.	16b-
.	.	.	16a-
.	.	.	16cc
.	.	.	16b-
.	.	.	16dd-
.	.	.	16cc
.	.	.	16b-
.	.	.	16a-
.	4A-	4c	16g
.	.	.	16f
.	.	.	16a-
.	.	.	16f
=24	=24	=24	=24
4.BB-	4G	2B-	4e-
.	8F	.	8d
8g	8b-	.	3..r
8f	8a	2r	.
8e-	8g	.	.
8d	8f	.	.
8c	8e-	.	.
.	.	.	24r
=25	=25	=25	=25
8B-	1d	4.r	1r
8B-	.	.	.
8B-	.	.	.
8B-	.	8ff	.
8B-	.	8ee-	.
8B-	.	8dd	.
8B-	.	8cc	.
8B-	.	8b-	.
=26	=26	=26	=26
8c	4e-	16a	4.r
.	.	16b-	.
8c	.	16cc	.
.	.	16b-	.
8c	2.r	16a	.
.	.	16b-	.
8c	.	16cc	8ccc
.	.	16dd	.
8c	.	[2ee-	8bb-
8c	.	.	8aa
8B-	.	.	8gg
8B-	.	.	8ff
=27	=27	=27	=27
8A	4.r	1ee-]	16ee
.	.	.	16ff
8A	.	.	16gg
.	.	.	16ff
8A	.	.	16ee
.	.	.	16ff
8A	8cc	.	16gg
.	.	.	16ff
8A	8b-	.	[2ff
8A	8a	.	.
8A	8g	.	.
8A	8f	.	.
=28	=28	=28	=28
4.A-	16f	2dd	1ff_
.	16g	.	.
.	16f	.	.
.	16e	.	.
.	16f	.	.
.	16g	.	.
8F	16a-	.	.
.	16g	.	.
8E-	[2a-	[2b-	.
8D	.	.	.
8C	.	.	.
8BB-	.	.	.
=29	=29	=29	=29
4BB-	4a-]	2b-]	4ff]
8E-	8g	.	8ee-
8D	4r	.	4r
8C	.	8r	.
8BB	8f	8g	8dd
8AA	8f	8g	8dd
8GG	8f	8g	8dd
=30	=30	=30	=30
4GG	4f	2g	4dd
8C	8e	.	8cc
8C	4r	.	4r
8BB-	.	8r	.
8AA	8e-	8f	8cc
8GG	8e-	8f	8cc
8FF	8e-	8f	8cc
=31	=31	=31	=31
4BB-	8.d	[1f	16b-
.	.	.	16dd
.	.	.	16ff
.	16B-	.	16dd
4r	8d	.	8bb-
.	4r	.	8ccc
2e-	.	.	8bb-
.	8cc	.	8aa
.	8b-	.	8gg
.	8a	.	8ff
=32	=32	=32	=32
2d	16b-	4f]	4ff
.	16cc	.	.
.	16dd	.	.
.	16b-	.	.
.	8f	4.r	8bb-
.	8f	.	8ccc
2e-	[2f	.	8bb-
.	.	8cc	8aa
.	.	8b-	8gg
.	.	8a	8ff
=33	=33	=33	=33
2d	4f]	16b-	4ff
.	.	16cc	.
.	.	16dd	.
.	.	16b-	.
.	4.r	8ff	8bb-
.	.	8ff	8ccc
2e-	.	[2ff	8bb-
.	8cc	.	8aa
.	8b-	.	8gg
.	8a	.	8ff
=34	=34	=34	=34
4d	4b-	4ff]	[1bb-
2.r	2.r	8r	.
.	.	8ff	.
.	.	8ee-	.
.	.	8dd	.
.	.	8cc	.
.	.	8b-	.
=35	=35	=35	=35
1r	4.r	1a-	1bb-_
.	8f	.	.
.	8e-	.	.
.	8d	.	.
.	8c	.	.
.	8B-	.	.
=36	=36	=36	=36
4.r	1e-	1g	1bb-_
8B-	.	.	.
8A-	.	.	.
8G	.	.	.
8F	.	.	.
8E-	.	.	.
=37	=37	=37	=37
1G-	4.d-	2..e	4.bb-]
.	8c	.	8aa
.	8d-	.	8bb-
.	8A	.	8ccc
.	8B-	.	8ddd-
.	8c	8b-	8ee
=38	=38	=38	=38
8F	8d	8b-	4ff
8F	8d	8b-	.
8F	8d	8b-	2fff
8F	8d	8b-	.
8F	8d	8b-	.
8F	8d	8b-	.
8F	8d	8b-	8ddd
8F	8d	8b-	16ccc
.	.	.	16bb-
=39	=39	=39	=39
8F	8e-	8a	1ccc
8F	8e-	8a	.
8F	8e-	8a	.
8F	8e-	8a	.
8F	8e-	8a	.
8F	8e-	8a	.
8F	8e-	8a	.
8F	8e-	8a	.
=40	=40	=40	=40
4BB-	4d	4b-	4bb-
2.r	2.r	2.r	4r
.	.	.	8b-
.	.	.	24cc
.	.	.	24b-
.	.	.	24a
.	.	.	8b-
.	.	.	8cc
=41	=41	=41	=41
2r	2r	2r	4dd
.	.	.	4dd
2D	2c	2f#	4dd
.	.	.	4dd
=42	=42	=42	=42
4GG	4B-	4g	16dd
.	.	.	16ff#
.	.	.	16gg
.	.	.	16ee-
2.r	2.r	2.r	4dd
.	.	.	4b-
.	.	.	8cc
.	.	.	8dd
=43	=43	=43	=43
4..AA	4..A	2f	4..cc
16BB-	16B-	.	16dd
4C	4c	8.a	8.cc
.	.	16g	16b-
4C	4c	8.f	8.a
.	.	16e	16g
=44	=44	=44	=44
4FF	4c	8e	8g
.	.	8f	8a
2.r	2.r	4A	4f
.	.	2r	8.f
.	.	.	16g
.	.	.	8.a
.	.	.	16b
=45	=45	=45	=45
4r	[1g [1G	8e-	4cc
.	.	8c	.
4C	.	8e-	2cc
.	.	8c	.
4E-	.	8e-	.
.	.	8c	.
4G	.	8f	8.dd
.	.	8d	.
.	.	.	16b
=46	=46	=46	=46
4.c	4.g] 4.G]	8e-	4cc
.	.	8g	.
.	.	8cc	2ee-
8B-	8g-	8cc	.
4A	4f	4cc	.
4r	4r	4r	12ee-
.	.	.	12gg
.	.	.	12ee-
=47	=47	=47	=47
4B-	4f	4b-	4dd
4r	4r	4r	12dd
.	.	.	12ff
.	.	.	12dd
4F	4e-	4a	4cc
4r	4r	4r	12cc
.	.	.	12ee-
.	.	.	12cc
=48	=48	=48	=48
4BB-	4d	4b-	4b-
2.r	4r	2.r	8bb-
.	.	.	3..r
.	8B-	.	.
.	24c	.	.
.	24B-	.	.
.	24A	.	.
.	8B-	.	.
.	8c	.	.
.	.	.	24r
=49	=49	=49	=49
2r	4d	2r	2r
.	4d	.	.
2D	4d	2c	2f#
.	4d	.	.
=50	=50	=50	=50
4GG	16d	4B-	4g
.	16f#	.	.
.	16g	.	.
.	16e-	.	.
2.r	4d	2.r	2.r
.	4B-	.	.
.	8c	.	.
.	8d	.	.
=51	=51	=51	=51
4..AA	4..c	2f	4..f
16BB-	16d	.	16b-
4C	8.c	4c	8.a
.	16B-	.	16g
4C	8.A	4c	8.f
.	16G	.	16e
=52	=52	=52	=52
4FF	8G	4c	8e
.	8A	.	8f
2.r	4F	2.r	2.r
.	8.F	.	.
.	16G	.	.
.	8.A	.	.
.	16B	.	.
=53	=53	=53	=53
8.C	4c	1r	1r
16D	.	.	.
8.E-	2c	.	.
16F	.	.	.
4.G	.	.	.
.	8.d	.	.
8F	.	.	.
.	16B	.	.
=54	=54	=54	=54
8.E-	4c	1r	1r
16D	.	.	.
8.C	2e-	.	.
16BB-	.	.	.
4AA	.	.	.
4r	12f#	.	.
.	12g	.	.
.	12e-	.	.
=55	=55	=55	=55
4BB-	4d	1r	1r
4r	12e	.	.
.	12f	.	.
.	12d	.	.
4F	4c	.	.
4r	12d	.	.
.	12e-	.	.
.	12c	.	.
=56	=56	=56	=56
8BB-	4B-	2b-	1r
8BB-	.	.	.
8BB-	2.r	.	.
8BB-	.	.	.
8BB-	.	2a	.
8BB-	.	.	.
8BB-	.	.	.
8BB-	.	.	.
=57	=57	=57	=57
8BB-	1r	2g	2ee-
8BB-	.	.	.
8BB-	.	.	.
8BB-	.	.	.
8BB-	.	2f	2dd
8BB-	.	.	.
8BB-	.	.	.
8BB-	.	.	.
=58	=58	=58	=58
8BB-	2g	2e	[3..cc
8BB-	.	.	.
8BB-	.	.	.
8BB-	.	.	.
8BB-	2a	2e-	.
.	.	.	24cc]
8BB-	.	.	16dd
.	.	.	16ee-
8BB-	.	.	8ff
8BB-	.	.	8ff
=59	=59	=59	=59
8BB-	2b-	4d	4b-
8BB-	.	.	.
8BB-	.	2.r	2.r
8BB-	.	.	.
8BB-	2a-	.	.
8BB-	.	.	.
8BB-	.	.	.
8BB-	.	.	.
=60	=60	=60	=60
8BB-	2g-	2ee-	1r
8BB-	.	.	.
8BB-	.	.	.
8BB-	.	.	.
8BB-	2f	2dd-	.
8BB-	.	.	.
8BB-	.	.	.
8BB-	.	.	.
=61	=61	=61	=61
8BB-	2e-	1cc-	2gg-
8BB-	.	.	.
8BB-	.	.	.
8BB-	.	.	.
8AA-	2d	.	2ff
8AA-	.	.	.
8AA-	.	.	.
8AA-	.	.	.
=62	=62	=62	=62
8GG	2e-	2b-	2bb-
8GG	.	.	.
8GG	.	.	.
8GG	.	.	.
8GG-	2e	2bb-	2ddd-
8GG-	.	.	.
8GG-	.	.	.
8GG-	.	.	.
=63	=63	=63	=63
4FF	4f	4ddd	4fff
4r	4r	4r	4r
2F	2c	2e-	2a
=64	=64	=64	=64
4BB-	4B-	4d	16b-
.	.	.	16B-
.	.	.	16c
.	.	.	16d
2.r	2.r	2.r	16e-
.	.	.	16f
.	.	.	16g
.	.	.	16a
.	.	.	16b-
.	.	.	16cc
.	.	.	16dd
.	.	.	16ee-
.	.	.	16ff
.	.	.	16gg
.	.	.	16aa
.	.	.	16bb-
=65	=65	=65	=65
4e-	16f	16a	8gg
.	16g	16b-	.
.	16a	16cc	8ff
.	16g	16b-	.
8.c	16a	16cc	4.ff
.	16b	16dd	.
.	16cc	16ee-	.
16A	16b	16dd	.
4F	16cc	16ee-	.
.	16b-	16dd	.
.	16a	16cc	8ee-
.	16g	16b-	.
4FF	16f	16a	8cc
.	16e-	16g	.
.	16d	16f	8a
.	16c	16e-	.
=66	=66	=66	=66
4BB-	4B-	16d	16b-
.	.	16B-	16B-
.	.	16A	16c
.	.	16B-	16d
4F	2f	16c	16e-
.	.	16d	16f
.	.	16e-	16g
.	.	16c	16a
4D	.	16d	16b-
.	.	16A	16cc
.	.	16B-	16dd
.	.	16c	16ee-
4BB-	4f	16d	16ff
.	.	16e-	16gg
.	.	16f	16aa
.	.	16g	16bb-
=67	=67	=67	=67
4E-	16f	16a	8gg
.	16g	16b-	.
.	16a	16cc	8ff
.	16g	16b-	.
8.C	16a	16cc	4.ff
.	16b	16dd	.
.	16cc	16ee-	.
16AA	16b	16dd	.
4FF	16cc	16ee-	.
.	16b-	16dd	.
.	16a	16cc	8ee-
.	16g	16b-	.
4F	16f	16a	8cc
.	16e-	16g	.
.	16d	16f	8a
.	16c	16e-	.
=68	=68	=68	=68
4BB-	4B-	4d	4b-
4B-	4b-	4dd 4f 4B-	4bb- 4b- 4d
4BB-	4B-	4B-	4B-
4r	4r	4r	4r
=69	=69	=69	=69
1r	1r	2B-	2b-
.	.	2b-	2bb-
=70	=70	=70	=70
1r	1r	2.e	2.ee
.	.	4f	4ff
=71	=71	=71	=71
2EE-	2E-	4f#	4ff#
.	.	4g	4gg
2E-	2e-	4B	4b
.	.	4c	4cc
=72	=72	=72	=72
2.AA	2.A	2.e-	2.ee-
4BB-	4B-	4d	4dd
=73	=73	=73	=73
4BB	4B	8r	8r
.	.	4f	4a-
4C	4c	.	.
.	.	8e	8g
4EE	4E	8r	8r
.	.	4B-	4dd-
4FF	4F	.	.
.	.	8A	8cc
=74	=74	=74	=74
2.AA-	2.A-	[2d 2B-	8r
.	.	.	4f
.	.	.	4f
.	.	2d] 2B	.
.	.	.	4f
4GG	4G	.	.
.	.	.	8f
=75	=75	=75	=75
8C	8G	8c	8e-
8C	4G	16c	16e-
.	.	16B	16d
8C	.	8c	8e-
8C	4G	8d	8f
8C	.	4e-	4g
8C	4G	.	.
8C	.	4r	4r
8C	[8G	.	.
=76	=76	=76	=76
8C	8G]	8cc	8ee-
8C	4G	16cc	16ee-
.	.	16b	16dd
8C	.	8cc	8ee-
8C	4G	8dd	8ff
8C	.	4ee-	4gg
8C	4G	.	.
8C	.	4r	4r
8C	8G	.	.
=77	=77	=77	=77
[1C	[1F	[1d [1B	12r
.	.	.	12A-
.	.	.	12B
.	.	.	12d
.	.	.	12f
.	.	.	12a-
.	.	.	12b
.	.	.	12dd
.	.	.	12ff
.	.	.	12aa-
.	.	.	12ff
.	.	.	12dd
=78	=78	=78	=78
1C]	1F]	1d] 1B]	12ff
.	.	.	12dd
.	.	.	12b
.	.	.	12a-
.	.	.	12f
.	.	.	12d
.	.	.	12f
.	.	.	12d
.	.	.	12B
.	.	.	12A-
.	.	.	12G
.	.	.	12f
=79	=79	=79	=79
8C	8G	8c	8e-
8C	4G	16c	16e-
.	.	16B	16d
8C	.	8c	8e-
8C	4G	8d	8f
8C	.	4e-	4g
8C	4G	.	.
8C	.	4r	4r
8C	[8G	.	.
=80	=80	=80	=80
8C	8G]	8cc	8ee-
8C	4G	16cc	16ee-
.	.	16b	16dd
8C	.	8cc	8ee-
8C	4G	8dd	8ff
8C	.	4ee-	4gg
8C	4G	.	.
8C	.	4r	4r
8C	8G	.	.
=81	=81	=81	=81
[1C	[1B-	[1e [1G	12r
.	.	.	12G
.	.	.	12B-
.	.	.	12e
.	.	.	12g
.	.	.	12b-
.	.	.	12ee
.	.	.	12gg
.	.	.	12bb-
.	.	.	12ddd-
.	.	.	12bb-
.	.	.	12gg
=82	=82	=82	=82
1C]	1B-]	1e] 1G]	12bb-
.	.	.	12gg
.	.	.	12ee
.	.	.	12dd-
.	.	.	12b-
.	.	.	12g
.	.	.	12b-
.	.	.	12g
.	.	.	12e
.	.	.	12d-
.	.	.	12c
.	.	.	12b-
=83	=83	=83	=83
8F	8c	8f	8a-
8F	8c	16f	16a-
.	.	16e	16g
8F	8c	8f	8a-
8F	8c	8g	8b-
8F	8c	4a-	4cc
8F	8c	.	.
8F	8c	4r	4r
8F	8c	.	.
=84	=84	=84	=84
8F	8c	8ff	8aa-
8F	8c	16ff	16aa-
.	.	16ee	16gg
8F	8c	8ff	8aa-
8F	8c	8gg	8bb-
8F	8c	4aa-	4ccc
8F	8c	.	.
8F	8c	4r	4r
8F	8c	.	.
=85	=85	=85	=85
[1E-	12r	8f	8a
.	12C	.	.
.	.	16f	16a
.	12F	.	.
.	.	16e	16g
.	12A	8f	8a
.	12c	.	.
.	.	8g	8b-
.	12f	.	.
.	12a	4a	4cc
.	12cc	.	.
.	12a	.	.
.	12ff	4r	4r
.	12cc	.	.
.	12a	.	.
=86	=86	=86	=86
1E-]	12cc	8ff	8aa
.	12a	.	.
.	.	16ff	16aa
.	12f	.	.
.	.	16ee	16gg
.	12a	8ff	8aa
.	12f	.	.
.	.	8gg	8bb-
.	12c	.	.
.	12f	4aa	4ccc
.	12c	.	.
.	12A	.	.
.	12c	4r	4r
.	12A	.	.
.	12F	.	.
=87	=87	=87	=87
[1D	8F#	8A	12r
.	.	.	12A
.	16F#	16A	.
.	.	.	12c
.	16E	16G	.
.	8F#	8A	12f#
.	.	.	12a
.	8G	8B-	.
.	.	.	12cc
.	4A	4c	12ff#
.	.	.	12aa
.	.	.	12ff#
.	4r	4r	12ccc
.	.	.	12aa
.	.	.	12ff#
=88	=88	=88	=88
1D]	8f#	8a	12aa
.	.	.	12ff#
.	16f#	16a	.
.	.	.	12cc
.	16e	16g	.
.	8f#	8a	12ff#
.	.	.	12cc
.	8g	8b-	.
.	.	.	12a
.	4a	4cc	12cc
.	.	.	12a
.	.	.	12f#
.	4r	4r	12e-
.	.	.	12d
.	.	.	12cc
=89	=89	=89	=89
[1GG	8G	12r	8b-
.	.	12B-	.
.	16G	.	16b-
.	.	12d	.
.	16F#	.	16a
.	8G	12g	8b-
.	.	12b-	.
.	8A	.	8cc
.	.	12dd	.
.	4B-	12gg	4dd
.	.	12bb-	.
.	.	12gg	.
.	4r	12ddd	4r
.	.	12bb-	.
.	.	12gg	.
=90	=90	=90	=90
1GG]	8g	12bb-	8bb-
.	.	12gg	.
.	16g	.	16bb-
.	.	12dd	.
.	16f#	.	16aa
.	8g	12gg	8bb-
.	.	12dd	.
.	8a	.	8ccc
.	.	12b-	.
.	4b-	12dd	4ddd
.	.	12b-	.
.	.	12g	.
.	4r	12b-	4r
.	.	12g	.
.	.	12d	.
=91	=91	=91	=91
12r	[1E-	8B-	8g
12EE-	.	.	.
.	.	16B-	16g
12GG	.	.	.
.	.	16A	16f#
12BB-	.	8B-	8g
12E-	.	.	.
.	.	8A	8a
12G	.	.	.
12B-	.	4G	4b-
12G	.	.	.
12B-	.	.	.
12e-	.	4r	4r
12B-	.	.	.
12G	.	.	.
=92	=92	=92	=92
12B-	1E-]	8b-	8gg
12G	.	.	.
.	.	16b-	16gg
12E-	.	.	.
.	.	16a	16ff#
12G	.	8b-	8gg
12E-	.	.	.
.	.	8a	8aa
12BB-	.	.	.
12E-	.	4g	4bb-
12BB-	.	.	.
12GG	.	.	.
12BB-	.	4r	4r
12GG	.	.	.
12EE-	.	.	.
=93	=93	=93	=93
4CC#	1r	4r	4r
2.r	.	4gg	4bb-
.	.	4gg	4bb-
.	.	4gg	4bb-
=94	=94	=94	=94
4r	4r	4gg	4bb-
4C#	4c#	2.r	2.r
4C#	4c#	.	.
4C#	4c#	.	.
=95	=95	=95	=95
4D	4d	1r	4r
2.r	2.r	.	4dd
.	.	.	4dd
.	.	.	4dd
=96	=96	=96	=96
2r	2r	2r	4dd
.	.	.	2.r
2D	2c	2f# 2A	.
=97	=97	=97	=97
4GG	4B-	4g 4G	4r
2.r	2.r	2.r	4dd
.	.	.	4dd
.	.	.	4dd-
=98	=98	=98	=98
2r	2r	2r	4cc
.	.	.	2.r
2C	2G	2e 2B-	.
=99	=99	=99	=99
4FF	4F	4f 4A	4r
2.r	2.r	2.r	4cc
.	.	.	4cc
.	.	.	4cc-
=100	=100	=100	=100
2r	2r	2r	4b-
.	.	.	2.r
2BB-	2F	2d 2A-	.
=101	=101	=101	=101
2EE-	2E-	2e- 2G	2e-
2e-	2e-	2ee-	2ee-
=102	=102	=102	=102
2.A	2.A	2.a	2.a
4B-	4B-	4b-	4b-
=103	=103	=103	=103
4B	4B	4b	4b
4c	4c	4cc	4cc
4E	4E	4e	4e
4F	4F	4f	4f
=104	=104	=104	=104
2A-	2A-	2a-	2a-
4G	4G	4g	4g
4r	4r	4r	4r
=105	=105	=105	=105
4r	4r	32c	2.f
.	.	32d	.
.	.	8.e-	.
4C	4A-	8e-	.
.	.	8e-	.
[2AA-	4c	2e-	.
.	4F	.	16b-
.	.	.	16a-
.	.	.	16g
.	.	.	16a-
=106	=106	=106	=106
4AA-]	4r	32c	2.f
.	.	32d	.
.	.	8.e-	.
4C	4A-	8e-	.
.	.	8e-	.
[2AA-	4c	[2e-	.
.	4F	.	16b-
.	.	.	16a-
.	.	.	16g
.	.	.	16a-
=107	=107	=107	=107
4AA-]	4r	2.e-]	4f
4A-	4f	.	4cc
4B-	4g	.	4b-
4BB-	4f	4d	4a-
=108	=108	=108	=108
4E-	4e-	8r	4g
.	.	8ee-	.
4.r	4g	8ee-	4b-
.	.	8ee-	.
.	2r	8.ee-	2r
8e-	.	.	.
.	.	32dd	.
.	.	32cc	.
8e-	.	8b-	.
8e-	.	8r	.
=109	=109	=109	=109
8.e-	8r	8.cc	1r
.	8e-	.	.
32d	.	32b-	.
32c	.	32a-	.
8B-	8e-	8g	.
8r	8e-	8r	.
8.c	8.e-	8.a-	.
32B-	32d	32g	.
32A-	32c	32f	.
8G	8B-	8e	.
8r	8r	8r	.
=110	=110	=110	=110
4A-	32c	2.f	2.ff
.	32d	.	.
.	8.e-	.	.
4c	8e-	.	.
.	8e-	.	.
[2A-	2e-	.	.
.	.	16b-	16bb-
.	.	16a-	16aa-
.	.	16g	16gg
.	.	16a-	16aa-
=111	=111	=111	=111
4A-]	32c	2.f	2.ff
.	32d	.	.
.	8.e-	.	.
4c	8e-	.	.
.	8e-	.	.
[2A-	[2e-	.	.
.	.	16b-	16bb-
.	.	16a-	16aa-
.	.	16g	16gg
.	.	16a-	16aa-
=112	=112	=112	=112
4A-]	4e-]	4f	4ff
4A-	4f	4cc [4e-	4ccc
4B-	4g	4b- 4e-]	4bb-
4BB-	4f 4B-	4d 4A-	4dd
=113	=113	=113	=113
8E-	8g 8B-	2e- 2G	2ee-
8D	8f	.	.
8E-	8g	.	.
8F	8a-	.	.
8G	8b-	2ee-	2eee-
8F	8a-	.	.
8G	8b-	.	.
8E-	8g	.	.
=114	=114	=114	=114
8F	8c	2.a	2.aa
8G-	8e-	.	.
8F	8f	.	.
8E-	8g-	.	.
8D	8f	.	.
8C	8e-	.	.
8D	8f	4b-	4bb-
8BB-	8d	.	.
=115	=115	=115	=115
8G	8d	4b	4bb
8F	8a-	.	.
8E-	8g	4cc	4ccc
8D	8f	.	.
8C	8g	4e	4ee
8BB-	8d-	.	.
8AA-	8c	4f	4ff
8GG	8B-	.	.
=116	=116	=116	=116
8FF	8c	2a-	2aa-
8GG	8B-	.	.
8AA-	8c	.	.
8BB-	8d	.	.
4EE-	8e-	8g	4gg
.	8e-	8g	.
4r	8f	8a-	4r
.	8g	8b-	.
=117	=117	=117	=117
8r	4.a-	1cc	4.r
8A-	.	.	.
8F	.	.	.
8E-	8g	.	8ccc
4D	4f	.	8bb-
.	.	.	8aa-
4F	[4a-	.	8gg
.	.	.	8ff
=118	=118	=118	=118
8r	4a-]	1b-	4ff
8G	.	.	.
8E-	8g	.	8bb-
8D	8f	.	8bb-
4C	4e-	.	8aa-
.	.	.	8gg
4E-	[4g	.	8ff
.	.	.	8ee-
=119	=119	=119	=119
8r	4g]	1a-	4ee-
8F	.	.	.
8D	8f	.	8aa-
8C	8e-	.	8aa-
2BB-	4d	.	8gg
.	.	.	8ff
.	8e-	.	8ee-
.	8f	.	8dd
=120	=120	=120	=120
2C	4e-	4g	8ff
.	.	.	8ee-
.	8r	8r	8dd
.	8e-	8g	8cc
2F	8e-	8g	8cc
.	8d	8f	8b-
.	8d	8f	8b-
.	8c	8e-	8a
=121	=121	=121	=121
8BB-	8B-	4d	4b-
8BB-	8d	.	.
8BB-	8d	8r	2.r
8BB-	8d	8ff	.
8BB-	8d	8ee-	.
8BB-	8d	8dd	.
8BB-	8d	8cc	.
8BB-	8d	8b-	.
=122	=122	=122	=122
8BB-	4e-	16a	4.r
.	.	16b-	.
8BB-	.	16cc	.
.	.	16b-	.
8BB-	8.c	16a	.
.	.	16b-	.
8BB-	.	16cc	8ccc
.	16A	16dd	.
8BB-	4F	[2ee-	8bb-
8BB-	.	.	8aa
8BB-	4A	.	8gg
8BB-	.	.	8ff
=123	=123	=123	=123
8BB-	4.A-	4ee-]	16ff
.	.	.	16gg
8BB-	.	.	16ff
.	.	.	16ee
8BB-	.	16dd	16ff
.	.	16ee-	16gg
8BB-	8a-	16dd	16ff
.	.	16ee-	16gg
8BB-	8g	2ff	[2aa-
8BB-	8f	.	.
8BB-	8e-	.	.
8BB-	8d	.	.
=124	=124	=124	=124
4.E-	16d-	4.b-	4aa-]
.	16e-	.	.
.	16d-	.	.
.	16c	.	.
.	16d-	.	8gg
.	16B-	.	.
8B-	16c	8g	8bb-
.	16d-	.	.
8A-	[2e-	[2b-	[2dd-
8G	.	.	.
8F	.	.	.
8E-	.	.	.
=125	=125	=125	=125
4E-	4e-_	4b-]	4dd-]
8A-	8e-]	8a-	8cc
8G	4r	4r	4r
8F	.	.	.
8E	8c	8g	8b-
8D	8c	8g	8b-
8C	8c	8g	8b-
=126	=126	=126	=126
4C	[4c	4g	4b-
8F	8c]	8f	8a
8F	4r	4r	4r
8E-	.	.	.
8D	8B-	8f	8a-
8C	8B-	8f	8a-
8BB-	8B-	8f	8a-
=127	=127	=127	=127
4E-	[1B-	16e-	8.g
.	.	16g	.
.	.	16b-	.
.	.	16g	16b-
4r	.	8ee-	8g
.	.	8ff	4r
2A-	.	8ee-	.
.	.	8dd	8f
.	.	8cc	8e-
.	.	8b-	8d
=128	=128	=128	=128
2G	4B-]	4b-	16e-
.	.	.	16f
.	.	.	16g
.	.	.	16e-
.	4.r	8ee-	8b-
.	.	8ff	8b-
2A-	.	8ee-	[2b-
.	8f	8dd	.
.	8e-	8cc	.
.	8d	8b-	.
=129	=129	=129	=129
2G	16e-	4b-	4b-]
.	16f	.	.
.	16g	.	.
.	16e-	.	.
.	8b-	8ee-	8r
.	8b-	4r	8fff
2A-	[2b-	.	8eee-
.	.	8ff	8ddd
.	.	8ee-	8ccc
.	.	8dd	8bb-
=130	=130	=130	=130
4G	4b-]	4ee-	[1eee-
2.r	2.r	8r	.
.	.	8bb-	.
.	.	8aa-	.
.	.	8gg	.
.	.	8ff	.
.	.	8ee-	.
=131	=131	=131	=131
1r	4.r	1dd-	1eee-_
.	8b-	.	.
.	8a-	.	.
.	8g	.	.
.	8f	.	.
.	8e-	.	.
=132	=132	=132	=132
4.r	1a-	1cc	1eee-_
8e-	.	.	.
8d-	.	.	.
8c	.	.	.
8B-	.	.	.
8A-	.	.	.
=133	=133	=133	=133
1c-	4.g-	2..a	4.eee-]
.	8f	.	8ddd
.	8g-	.	8eee-
.	8d	.	8fff
.	8e-	.	8ggg-
.	8f	8ee-	8aa
=134	=134	=134	=134
8B-	8g	8ee-	4bb-
8B-	8g	8ee-	.
8B-	8g	8ee-	2bbb-
8B-	8g	8ee-	.
8B-	8g	8ee-	.
8B-	8g	8ee-	.
8B-	8g	8ee-	8ggg
8B-	8g	8ee-	16fff
.	.	.	16eee-
=135	=135	=135	=135
8B-	8a-	8dd	1fff
8B-	8a-	8dd	.
8B-	8a-	8dd	.
8B-	8a-	8dd	.
8B-	8a-	8dd	.
8B-	8a-	8dd	.
8B-	8a-	8dd	.
8B-	8a-	8dd	.
=136	=136	=136	=136
4E-	4g	4ee-	4eee-
2.r	2.r	2.r	4r
.	.	.	8ee-
.	.	.	24ff
.	.	.	24ee-
.	.	.	24dd
.	.	.	8ee-
.	.	.	8ff
=137	=137	=137	=137
2r	2r	2r	4gg
.	.	.	4gg
2G	2f	2b	4gg
.	.	.	4gg
=138	=138	=138	=138
4C	4e-	4cc	16gg
.	.	.	16bb
.	.	.	16ccc
.	.	.	16aa-
2.r	2.r	2.r	4gg
.	.	.	4ee-
.	.	.	8ff
.	.	.	8gg
=139	=139	=139	=139
4..D	4..d	2b-	4..ff
16E-	16e-	.	16gg
4F	4f	8.dd	8.ff
.	.	16cc	16ee-
4F	4f	8.b-	8.dd
.	.	16a	16cc
=140	=140	=140	=140
4BB-	4f	8a	8cc
.	.	8b-	8dd
2.r	2.r	4d	4b-
.	.	2r	8.b-
.	.	.	16cc
.	.	.	8.dd
.	.	.	16ee
=141	=141	=141	=141
4r	[1cc	8a-	4ff
.	.	8f	.
4F	.	8a-	2ff
.	.	8f	.
4A-	.	8a-	.
.	.	8f	.
4c	.	8b-	8.gg
.	.	8g	.
.	.	.	16ee
=142	=142	=142	=142
4.f	4.cc]	8a-	4ff
.	.	8cc	.
.	.	8ff	2aa-
8e-	8cc-	8ff	.
4d	4b-	4ff	.
4r	4r	4r	12aa-
.	.	.	12ccc
.	.	.	12aa-
=143	=143	=143	=143
4e-	4b-	4ee-	4gg
4r	4r	4r	12gg
.	.	.	12bb-
.	.	.	12gg
4B-	4a-	4dd	4ff
4r	4r	4r	12ff
.	.	.	12aa-
.	.	.	12ff
=144	=144	=144	=144
4E-	4g	4ee-	4ee-
2.r	2.r	4r	8eee-
.	.	.	3..r
.	.	8e-	.
.	.	24f	.
.	.	24e-	.
.	.	24d	.
.	.	8e-	.
.	.	8f	.
.	.	.	24r
=145	=145	=145	=145
2r	2r	4g	2r
.	.	4g	.
2GG	2F	4g	2B
.	.	4g	.
=146	=146	=146	=146
4CC	4E-	16g	4c
.	.	16b	.
.	.	16cc	.
.	.	16a-	.
2.r	2.r	4g	2.r
.	.	4e-	.
.	.	8f	.
.	.	8g	.
=147	=147	=147	=147
4..DD	4..D	4..f	2B-
16EE-	16E-	16g	.
4FF	4F	8.f	8.d
.	.	16e-	16c
4FF	4F	8.d	8.B-
.	.	16c	16A
=148	=148	=148	=148
4BB-	8E-	8c	8A
.	8D	8d	8B-
2.r	4D	4B-	2.r
.	2r	8.B-	.
.	.	16c	.
.	.	8.d	.
.	.	16e	.
=149	=149	=149	=149
1r	8.F	4f	1r
.	16G	.	.
.	8.A-	2f	.
.	16B-	.	.
.	4.c	.	.
.	.	8.g	.
.	8B-	.	.
.	.	16e	.
=150	=150	=150	=150
1r	8.A-	4f	1r
.	16G	.	.
.	8.F	2a-	.
.	16E-	.	.
.	4D	.	.
.	4r	12b	.
.	.	12cc	.
.	.	12a-	.
=151	=151	=151	=151
1r	4E-	4g	1r
.	4r	12a	.
.	.	12b-	.
.	.	12g	.
.	4B-	4f	.
.	4r	12g	.
.	.	12a-	.
.	.	12f	.
=152	=152	=152	=152
8E-	2e-	4e-	1r
8E-	.	.	.
8E-	.	2.r	.
8E-	.	.	.
8E-	2d	.	.
8E-	.	.	.
8E-	.	.	.
8E-	.	.	.
=153	=153	=153	=153
8E-	2c	1r	2a-
8E-	.	.	.
8E-	.	.	.
8E-	.	.	.
8E-	2B-	.	2g
8E-	.	.	.
8E-	.	.	.
8E-	.	.	.
=154	=154	=154	=154
8E-	2A	2c	[3..f
8E-	.	.	.
8E-	.	.	.
8E-	.	.	.
8E-	2A-	2d	.
.	.	.	24f]
8E-	.	.	16g
.	.	.	16a-
8E-	.	.	8b-
8E-	.	.	8b-
=155	=155	=155	=155
8E-	4G	2e-	4e-
8E-	.	.	.
8E-	2.r	.	2.r
8E-	.	.	.
8E-	.	2d-	.
8E-	.	.	.
8E-	.	.	.
8E-	.	.	.
=156	=156	=156	=156
8E-	2a-	2c-	1r
8E-	.	.	.
8E-	.	.	.
8E-	.	.	.
8E-	2g-	2B-	.
8E-	.	.	.
8E-	.	.	.
8E-	.	.	.
=157	=157	=157	=157
8E-	1f-	2A-	2cc-
8E-	.	.	.
8E-	.	.	.
8E-	.	.	.
8D-	.	2G	2b-
8D-	.	.	.
8D-	.	.	.
8D-	.	.	.
=158	=158	=158	=158
8C	2e-	2A-	2ee-
8C	.	.	.
8C	.	.	.
8C	.	.	.
8C-	2a	2ee-	2gg-
8C-	.	.	.
8C-	.	.	.
8C-	.	.	.
=159	=159	=159	=159
4BB-	4ee-	4gg	4bb-
4r	4r	4r	4r
2BB-	2F	2A-	2d
=160	=160	=160	=160
4EE-	4E-	4G	8e-
.	.	.	16f
.	.	.	16g
4B-	2.r	2.r	16a-
.	.	.	16b-
.	.	.	16cc
.	.	.	16dd
4G	.	.	16ee-
.	.	.	16ff
.	.	.	16gg
.	.	.	16aa-
4E-	.	.	8bb-
.	.	.	8bb-
=161	=161	=161	=161
4A-	16B-	16d	8bb-
.	16c	16e-	.
.	16d	16f	8ff
.	16c#	16e	.
8.F	16d	16f	4.aa-
.	16e	16g	.
.	16f	16a-	.
16D	16e	16g	.
4BB-	8f	8a-	.
.	4f	4a-	16bb-
.	.	.	16aa-
4B-	.	.	16gg
.	.	.	16ff
.	8f	8a-	16ee-
.	.	.	16dd
=162	=162	=162	=162
4E-	4e-	16g	16ee-
.	.	16e-	16e-
.	.	16d	16f
.	.	16e-	16g
4BB-	[6..B-	16f	16a-
.	.	16g	16b-
.	.	16a-	16cc
.	.	16f	16dd
4GG	.	4b-	16ee-
.	48B-]	.	.
.	16d	.	16ff
.	16e-	.	16gg
.	16f	.	16aa-
4EE-	16g	4r	8bb-
.	16f	.	.
.	16g	.	8bb-
.	16e-	.	.
=163	=163	=163	=163
4A-	16d	16B-	8bb-
.	16e-	16c	.
.	16f	16d	8ff
.	16e	16c#	.
8.F	16f	16d	4.aa-
.	16g	16e	.
.	16a-	16f	.
16D	16g	16e	.
4BB-	8a-	8f	.
.	4a-	4f	16bb-
.	.	.	16aa-
4B-	.	.	16gg
.	.	.	16ff
.	8a-	8f	16ee-
.	.	.	16dd
=164	=164	=164	=164
4E-	4g	4e-	4ee-
4EE-	8.B-	8.e- 8.G	8.e- 8.G
.	16B-	16e- 16G	16e- 16G
4EE-	4B-	4e- 4G	4e- 4G
4r	4r	4r	4r
==	==	==	==
*-	*-	*-	*-
!!!RWG1: This file contains only pitch and duration data.
!!!RWG2: Transposing instruments are not transposed.
!!!RWG3: Spines may have incompatible meters.
!!!RWG4: Durations of rests and tied notes may be interpreted.
!!!RWG: Key is interpreted using the Humdrum key tool.
!!!AFT: stage1
!!!END: 1997/04/15
!!!KEY: 884746298
!!!EMD: Converted from MuseData to Humdrum Dec 16, 2000, by Andreas Kornstaedt using muse2kern.
!!!EMD: Manual editing by Craig Sapp, Nov 2001
